public/assets/images/icons/grey/folder-group-empty.svg

<svg width="16" height="16" xmlns="http://www.w3.org/2000/svg" viewBox="0 0 16 16" shape-rendering="geometricPrecision" fill="#6e6e6e"><path d="M6.799 3.47L6.5 1.979h-4L2.2 3.47H.999v10h14v-10h-8.2zm7.201 9H2v-8h12v8z"/><circle cx="5.864" cy="7.27" r=".858"/><path d="M6.255 8.536h-.784a.828.828 0 0 0-.825.828v1.074h2.436V9.364a.83.83 0 0 0-.827-.828z"/><circle cx="10.136" cy="8.287" r=".858"/><path d="M10.526 9.552h-.783a.827.827 0 0 0-.824.827v1.075h2.436v-1.075a.832.832 0 0 0-.829-.827z"/><circle cx="7.763" cy="6.321" r=".858"/><path d="M8.981 9.489V8.414a.83.83 0 0 0-.827-.827H7.37a.825.825 0 0 0-.821.794c.425.127.737.517.737.983v.125h1.695z"/></svg>

<?xml version="1.0"?><!DOCTYPE svg PUBLIC "-//W3C//DTD SVG 1.1//EN" "http://www.w3.org/Graphics/SVG/1.1/DTD/svg11.dtd"><svg width="16px" height="16px" xmlns="http://www.w3.org/2000/svg" viewBox="0 0 16 16" shape-rendering="geometricPrecision" fill="#6e6e6e"><g><path d="M6.799,3.47L6.5,1.979h-4L2.2,3.47H0.999v10h14v-10H6.799z M14,12.47H2v-8h5h7V12.47z"/><g><circle cx="5.864" cy="7.27" r="0.858"/><path d="M6.255,8.536H5.471c-0.455,0-0.825,0.373-0.825,0.828v1.074h2.436V9.364C7.082,8.909,6.709,8.536,6.255,8.536z"/><circle cx="10.136" cy="8.287" r="0.858"/><path d="M10.526,9.552H9.743c-0.455,0-0.824,0.373-0.824,0.827v1.075h2.436v-1.075C11.354,9.925,10.981,9.552,10.526,9.552z"/><circle cx="7.763" cy="6.321" r="0.858"/><path d="M8.981,9.489V8.414c0-0.454-0.372-0.827-0.827-0.827H7.37c-0.444,0-0.803,0.354-0.821,0.794 c0.425,0.127,0.737,0.517,0.737,0.983v0.125H8.981z"/></g></g></svg>
